SVG_Azure_All/Bicep.svg

<?xml version="1.0" encoding="UTF-8" standalone="no"?>
<!-- Generated by Microsoft Visio, SVG Export Bicep.svg Page-1 -->

<svg
   xmlns:dc="http://purl.org/dc/elements/1.1/"
   xmlns:cc="http://creativecommons.org/ns#"
   xmlns:rdf="http://www.w3.org/1999/02/22-rdf-syntax-ns#"
   xmlns:svg="http://www.w3.org/2000/svg"
   xmlns="http://www.w3.org/2000/svg"
   xmlns:sodipodi="http://sodipodi.sourceforge.net/DTD/sodipodi-0.dtd"
   xmlns:inkscape="http://www.inkscape.org/namespaces/inkscape"
   width="0.66933221in"
   height="0.78742415in"
   viewBox="0 0 48.191782 56.694423"
   xml:space="preserve"
   class="st14"
   version="1.1"
   id="svg156"
   sodipodi:docname="Bicep.svg"
   style="font-size:12px;overflow:visible;color-interpolation-filters:sRGB;fill:none;fill-rule:evenodd;stroke-linecap:square;stroke-miterlimit:3"
   inkscape:version="0.92.5 (2060ec1f9f, 2020-04-08)"><metadata
   id="metadata160"><rdf:RDF><cc:Work
       rdf:about=""><dc:format>image/svg+xml</dc:format><dc:type
         rdf:resource="http://purl.org/dc/dcmitype/StillImage" /></cc:Work></rdf:RDF></metadata><sodipodi:namedview
   pagecolor="#ffffff"
   bordercolor="#666666"
   borderopacity="1"
   objecttolerance="10"
   gridtolerance="10"
   guidetolerance="10"
   inkscape:pageopacity="0"
   inkscape:pageshadow="2"
   inkscape:window-width="640"
   inkscape:window-height="480"
   id="namedview158"
   showgrid="false"
   inkscape:zoom="1.3085011"
   inkscape:cx="32.125846"
   inkscape:cy="37.796528"
   inkscape:window-x="0"
   inkscape:window-y="0"
   inkscape:window-maximized="0"
   inkscape:current-layer="svg156" />
	<style
   type="text/css"
   id="style2">
	<![CDATA[
		.st1 {fill:#32bedd;stroke:none;stroke-width:39.2882}
		.st2 {fill:#9cebff;stroke:none;stroke-width:39.2882}
		.st3 {fill:#50e6ff;stroke:none;stroke-width:39.2882}
		.st4 {fill:#808080;stroke:none;stroke-linecap:butt;stroke-width:0.756551}
		.st5 {fill:url(#grad0-19);stroke:none;stroke-linecap:butt;stroke-width:0.639079}
		.st6 {fill:#666666;stroke:none;stroke-linecap:butt;stroke-width:0.996348}
		.st7 {fill:url(#grad0-28);stroke:none;stroke-linecap:butt;stroke-width:0.792438}
		.st8 {fill:#666666;stroke:none;stroke-linecap:butt;stroke-width:1.07088}
		.st9 {fill:#808080;stroke:none;stroke-linecap:butt;stroke-width:0.572685}
		.st10 {fill:url(#grad0-39);stroke:none;stroke-linecap:butt;stroke-width:0.756551}
		.st11 {fill:#666666;stroke:none;stroke-linecap:butt;stroke-width:0.614104}
		.st12 {fill:url(#grad0-47);stroke:none;stroke-linecap:butt;stroke-width:0.488424}
		.st13 {fill:#666666;stroke:none;stroke-linecap:butt;stroke-width:0.660045}
		.st14 {fill:none;fill-rule:evenodd;font-size:12px;overflow:visible;stroke-linecap:square;stroke-miterlimit:3}
	]]>
	</style>

	<defs
   id="Patterns_And_Gradients">
		<linearGradient
   id="grad0-19"
   x1="0"
   y1="140.158"
   x2="19.970148"
   y2="140.158"
   gradientTransform="scale(1.1837669,0.8447609)"
   gradientUnits="userSpaceOnUse">
			<stop
   offset="0"
   stop-color="#ffd70f"
   stop-opacity="1"
   id="stop4" />
			<stop
   offset="0.34"
   stop-color="#eeb309"
   stop-opacity="1"
   id="stop6" />
			<stop
   offset="0.77"
   stop-color="#dc8c03"
   stop-opacity="1"
   id="stop8" />
			<stop
   offset="1"
   stop-color="#d57d01"
   stop-opacity="1"
   id="stop10" />
		</linearGradient>
		<linearGradient
   id="grad0-28"
   x1="0"
   y1="123.53806"
   x2="13.06649"
   y2="123.53806"
   gradientTransform="scale(1.0098703,0.99022615)"
   gradientUnits="userSpaceOnUse">
			<stop
   offset="0"
   stop-color="#ffd70f"
   stop-opacity="1"
   id="stop13" />
			<stop
   offset="0.34"
   stop-color="#eeb309"
   stop-opacity="1"
   id="stop15" />
			<stop
   offset="0.77"
   stop-color="#dc8c03"
   stop-opacity="1"
   id="stop17" />
			<stop
   offset="1"
   stop-color="#d57d01"
   stop-opacity="1"
   id="stop19" />
		</linearGradient>
		<linearGradient
   id="grad0-39"
   x1="0"
   y1="100.08173"
   x2="11.250964"
   y2="100.08173"
   gradientTransform="scale(0.82304056,1.215007)"
   gradientUnits="userSpaceOnUse">
			<stop
   offset="0"
   stop-color="#ffd70f"
   stop-opacity="1"
   id="stop22" />
			<stop
   offset="0.34"
   stop-color="#eeb309"
   stop-opacity="1"
   id="stop24" />
			<stop
   offset="0.77"
   stop-color="#dc8c03"
   stop-opacity="1"
   id="stop26" />
			<stop
   offset="1"
   stop-color="#d57d01"
   stop-opacity="1"
   id="stop28" />
		</linearGradient>
		<linearGradient
   id="grad0-47"
   x1="0"
   y1="128.55093"
   x2="8.0536112"
   y2="128.55093"
   gradientTransform="scale(1.0098699,0.99022656)"
   gradientUnits="userSpaceOnUse">
			<stop
   offset="0"
   stop-color="#ffd70f"
   stop-opacity="1"
   id="stop31" />
			<stop
   offset="0.34"
   stop-color="#eeb309"
   stop-opacity="1"
   id="stop33" />
			<stop
   offset="0.77"
   stop-color="#dc8c03"
   stop-opacity="1"
   id="stop35" />
			<stop
   offset="1"
   stop-color="#d57d01"
   stop-opacity="1"
   id="stop37" />
		</linearGradient>
	</defs>
	<g
   id="g154"
   transform="translate(-39.2882,-39.2874)">
		<title
   id="title41">Page-1</title>
		<g
   id="group7319-1"
   transform="translate(39.2882,-39.2882)">
			<title
   id="title43">Bicep</title>
			<g
   id="group7320-2">
				<title
   id="title45">Page-1</title>
				<g
   id="group7321-3">
					<title
   id="title47">g22</title>
					<g
   id="shape7322-4"
   transform="translate(24.0718)">
						<title
   id="title49">path12</title>
						<path
   d="m 24.12,92.8 v 28.25 L 0,135.27 v -28.3 z"
   class="st1"
   id="path51"
   inkscape:connector-curvature="0"
   style="fill:#32bedd;stroke:none;stroke-width:39.28820038" />
					</g>
					<g
   id="shape7323-6"
   transform="translate(0,-28.2544)">
						<title
   id="title54">path14</title>
						<path
   d="M 48.19,121.05 24.12,135.27 0,121.05 24.12,106.83 Z"
   class="st2"
   id="path56"
   inkscape:connector-curvature="0"
   style="fill:#9cebff;stroke:none;stroke-width:39.28820038" />
					</g>
					<g
   id="shape7324-8">
						<title
   id="title59">path16</title>
						<path
   d="m 24.07,107.01 v 28.26 L 0,121.05 V 92.8 Z"
   class="st3"
   id="path61"
   inkscape:connector-curvature="0"
   style="fill:#50e6ff;stroke:none;stroke-width:39.28820038" />
					</g>
					<g
   id="shape7325-10">
						<title
   id="title64">path18-3</title>
						<path
   d="m 0,121.05 24.07,-14.08 v 28.3 z"
   class="st2"
   id="path66"
   inkscape:connector-curvature="0"
   style="fill:#9cebff;stroke:none;stroke-width:39.28820038" />
					</g>
					<g
   id="shape7326-12"
   transform="translate(24.0718)">
						<title
   id="title69">path20</title>
						<path
   d="M 24.12,121.05 0,106.97 v 28.3 z"
   class="st3"
   id="path71"
   inkscape:connector-curvature="0"
   style="fill:#50e6ff;stroke:none;stroke-width:39.28820038" />
					</g>
				</g>
				<g
   id="shape7327-14"
   transform="translate(7.52124,-13.1994)">
					<title
   id="title75">path1428-6</title>
					<path
   d="M 27.98,119.83 3.27,115.3 0,124.66 23.2,135.27 Z"
   class="st4"
   id="path77"
   inkscape:connector-curvature="0"
   style="fill:#808080;stroke:none;stroke-width:0.75655103;stroke-linecap:butt" />
				</g>
				<g
   id="shape7328-16"
   transform="translate(10.6191,-14.669)">
					<title
   id="title80">path1428-5-0</title>
					<path
   d="M 23.64,122.23 2.76,118.4 0,126.31 l 19.6,8.96 z"
   class="st5"
   id="path82"
   inkscape:connector-curvature="0"
   style="fill:url(#grad0-19);stroke:none;stroke-width:0.63907897;stroke-linecap:butt" />
				</g>
				<g
   id="group7329-20"
   transform="translate(25.5184,-12.6082)">
					<title
   id="title85">g23677</title>
					<g
   id="group7330-21">
						<title
   id="title87">path19531</title>
						<g
   id="shape7331-22">
							<title
   id="title89">ellipse35-6</title>
							<ellipse
   cx="8.3375397"
   cy="127.176"
   rx="8.3375397"
   ry="8.09303"
   class="st6"
   id="ellipse91"
   style="fill:#666666;stroke:none;stroke-width:0.99634802;stroke-linecap:butt" />
						</g>
					</g>
					<g
   id="group7332-24"
   transform="translate(1.728,-1.59327)">
						<title
   id="title95">path19531-0</title>
						<g
   id="shape7333-25">
							<title
   id="title97">ellipse40-7</title>
							<ellipse
   cx="6.5977302"
   cy="128.8"
   rx="6.5977302"
   ry="6.4693899"
   class="st7"
   id="ellipse99"
   style="fill:url(#grad0-28);stroke:none;stroke-width:0.79243797;stroke-linecap:butt" />
						</g>
					</g>
					<g
   id="group7334-29"
   transform="translate(4.27905,-4.24125)">
						<title
   id="title103">path17198-8-5</title>
						<g
   id="shape7335-30">
							<title
   id="title105">path45-9</title>
							<path
   d="m 2.07,127.8 h 3.94 l 2.12,3.71 -2.14,3.76 H 2.12 L 0,131.54 Z"
   class="st8"
   id="path107"
   inkscape:connector-curvature="0"
   style="fill:#666666;stroke:none;stroke-width:1.07088006;stroke-linecap:butt" />
						</g>
					</g>
				</g>
				<g
   id="group7336-32"
   transform="rotate(17.6,93.74872,138.83322)">
					<title
   id="title112">path26623-1</title>
					<g
   id="shape7337-33">
						<title
   id="title114">path56-3</title>
						<path
   d="m 8.96,135.27 3.78,-14.44 4.14,-1.1 2.15,-2.35 v -1.25 l -0.62,-0.45 -2.61,2.74 -2.53,0.77 -1.72,-1.4 0.45,-2.84 2.52,-2.76 -0.59,-0.57 -0.98,0.05 -2.42,2.56 -0.59,3.99 L 0,131.06 Z"
   class="st9"
   id="path116"
   inkscape:connector-curvature="0"
   style="fill:#808080;stroke:none;stroke-width:0.572685;stroke-linecap:butt" />
					</g>
				</g>
				<g
   id="group7338-35"
   transform="rotate(17.6,99.407252,147.6791)">
					<title
   id="title120">path27387</title>
					<g
   id="shape7339-36">
						<title
   id="title122">path61-5</title>
						<path
   d="m 0,132.71 8.31,-11.11 0.95,0.81 -3.9,12.86 z"
   class="st10"
   id="path124"
   inkscape:connector-curvature="0"
   style="fill:url(#grad0-39);stroke:none;stroke-width:0.75655103;stroke-linecap:butt" />
					</g>
				</g>
				<g
   id="group7340-40"
   transform="translate(4.73049,-23.271)">
					<title
   id="title128">path19531-6</title>
					<g
   id="shape7341-41">
						<title
   id="title130">ellipse66-8</title>
						<ellipse
   cx="5.1388898"
   cy="130.28101"
   rx="5.1388898"
   ry="4.9881902"
   class="st11"
   id="ellipse132"
   style="fill:#666666;stroke:none;stroke-width:0.61410397;stroke-linecap:butt" />
					</g>
				</g>
				<g
   id="group7342-43"
   transform="translate(5.79552,-24.2529)">
					<title
   id="title136">path19531-0-6</title>
					<g
   id="shape7343-44">
						<title
   id="title138">ellipse71-8</title>
						<ellipse
   cx="4.0665498"
   cy="131.282"
   rx="4.0665498"
   ry="3.9874499"
   class="st12"
   id="ellipse140"
   style="fill:url(#grad0-47);stroke:none;stroke-width:0.488424;stroke-linecap:butt" />
					</g>
				</g>
				<g
   id="group7344-48"
   transform="translate(7.36791,-25.8852)">
					<title
   id="title144">path17198-8-5-0</title>
					<g
   id="shape7345-49">
						<title
   id="title146">path76-8</title>
						<path
   d="m 1.27,130.66 h 2.44 l 1.3,2.29 -1.32,2.32 H 1.31 L 0,132.97 Z"
   class="st13"
   id="path148"
   inkscape:connector-curvature="0"
   style="fill:#666666;stroke:none;stroke-width:0.66004503;stroke-linecap:butt" />
					</g>
				</g>
			</g>
		</g>
	</g>
</svg>

<?xml version="1.0" encoding="UTF-8" standalone="no"?>
<!DOCTYPE svg PUBLIC "-//W3C//DTD SVG 1.1//EN" "http://www.w3.org/Graphics/SVG/1.1/DTD/svg11.dtd">
<!-- Generated by Microsoft Visio, SVG Export Bicep.svg Page-1 -->
<svg xmlns="http://www.w3.org/2000/svg" xmlns:xlink="http://www.w3.org/1999/xlink" xmlns:ev="http://www.w3.org/2001/xml-events"
		width="1.76063in" height="1.87874in" viewBox="0 0 126.765 135.269" xml:space="preserve" color-interpolation-filters="sRGB"
		class="st14">
	<style type="text/css">
	<![CDATA[
		.st1 {fill:#32bedd;stroke:none;stroke-width:39.2882}
		.st2 {fill:#9cebff;stroke:none;stroke-width:39.2882}
		.st3 {fill:#50e6ff;stroke:none;stroke-width:39.2882}
		.st4 {fill:#808080;stroke:none;stroke-linecap:butt;stroke-width:0.756551}
		.st5 {fill:url(#grad0-19);stroke:none;stroke-linecap:butt;stroke-width:0.639079}
		.st6 {fill:#666666;stroke:none;stroke-linecap:butt;stroke-width:0.996348}
		.st7 {fill:url(#grad0-28);stroke:none;stroke-linecap:butt;stroke-width:0.792438}
		.st8 {fill:#666666;stroke:none;stroke-linecap:butt;stroke-width:1.07088}
		.st9 {fill:#808080;stroke:none;stroke-linecap:butt;stroke-width:0.572685}
		.st10 {fill:url(#grad0-39);stroke:none;stroke-linecap:butt;stroke-width:0.756551}
		.st11 {fill:#666666;stroke:none;stroke-linecap:butt;stroke-width:0.614104}
		.st12 {fill:url(#grad0-47);stroke:none;stroke-linecap:butt;stroke-width:0.488424}
		.st13 {fill:#666666;stroke:none;stroke-linecap:butt;stroke-width:0.660045}
		.st14 {fill:none;fill-rule:evenodd;font-size:12px;overflow:visible;stroke-linecap:square;stroke-miterlimit:3}
	]]>
	</style>

	<defs id="Patterns_And_Gradients">
		<linearGradient id="grad0-19" x1="0" y1="0" x2="1" y2="0" gradientTransform="rotate(25.705754831125 0.5 0.5)">
			<stop offset="0" stop-color="#ffd70f" stop-opacity="1"/>
			<stop offset="0.34" stop-color="#eeb309" stop-opacity="1"/>
			<stop offset="0.77" stop-color="#dc8c03" stop-opacity="1"/>
			<stop offset="1" stop-color="#d57d01" stop-opacity="1"/>
		</linearGradient>
		<linearGradient id="grad0-28" x1="0" y1="0" x2="1" y2="0" gradientTransform="rotate(89.91906946166 0.5 0.5)">
			<stop offset="0" stop-color="#ffd70f" stop-opacity="1"/>
			<stop offset="0.34" stop-color="#eeb309" stop-opacity="1"/>
			<stop offset="0.77" stop-color="#dc8c03" stop-opacity="1"/>
			<stop offset="1" stop-color="#d57d01" stop-opacity="1"/>
		</linearGradient>
		<linearGradient id="grad0-39" x1="0" y1="0" x2="1" y2="0" gradientTransform="rotate(127.28652075374 0.5 0.5)">
			<stop offset="0" stop-color="#ffd70f" stop-opacity="1"/>
			<stop offset="0.34" stop-color="#eeb309" stop-opacity="1"/>
			<stop offset="0.77" stop-color="#dc8c03" stop-opacity="1"/>
			<stop offset="1" stop-color="#d57d01" stop-opacity="1"/>
		</linearGradient>
		<linearGradient id="grad0-47" x1="0" y1="0" x2="1" y2="0" gradientTransform="rotate(89.861752183599 0.5 0.5)">
			<stop offset="0" stop-color="#ffd70f" stop-opacity="1"/>
			<stop offset="0.34" stop-color="#eeb309" stop-opacity="1"/>
			<stop offset="0.77" stop-color="#dc8c03" stop-opacity="1"/>
			<stop offset="1" stop-color="#d57d01" stop-opacity="1"/>
		</linearGradient>
	</defs>
	<g>
		<title>Page-1</title>
		<g id="group7151-1" transform="translate(39.2882,-39.2882)">
			<title>Bicep</title>
			<g id="group7152-2">
				<title>Page-1</title>
				<g id="group7153-3">
					<title>g22</title>
					<g id="shape7154-4" transform="translate(24.0718,2.84217E-13)">
						<title>path12</title>
						<path d="M24.12 92.8 L24.12 121.05 L0 135.27 L0 106.97 L24.12 92.8 Z" class="st1"/>
					</g>
					<g id="shape7155-6" transform="translate(0,-28.2544)">
						<title>path14</title>
						<path d="M48.19 121.05 L24.12 135.27 L0 121.05 L24.12 106.83 L48.19 121.05 Z" class="st2"/>
					</g>
					<g id="shape7156-8">
						<title>path16</title>
						<path d="M24.07 107.01 L24.07 135.27 L0 121.05 L0 92.8 L24.07 107.01 Z" class="st3"/>
					</g>
					<g id="shape7157-10">
						<title>path18-3</title>
						<path d="M0 121.05 L24.07 106.97 L24.07 135.27 L0 121.05 Z" class="st2"/>
					</g>
					<g id="shape7158-12" transform="translate(24.0718,-2.84217E-13)">
						<title>path20</title>
						<path d="M24.12 121.05 L0 106.97 L0 135.27 L24.12 121.05 Z" class="st3"/>
					</g>
				</g>
				<g id="shape7159-14" transform="translate(7.52124,-13.1994)">
					<title>path1428-6</title>
					<path d="M27.98 119.83 L3.27 115.3 L0 124.66 L23.2 135.27 L27.98 119.83 Z" class="st4"/>
				</g>
				<g id="shape7160-16" transform="translate(10.6191,-14.669)">
					<title>path1428-5-0</title>
					<path d="M23.64 122.23 L2.76 118.4 L0 126.31 L19.6 135.27 L23.64 122.23 Z" class="st5"/>
				</g>
				<g id="group7161-20" transform="translate(25.5184,-12.6082)">
					<title>g23677</title>
					<g id="group7162-21">
						<title>path19531</title>
						<g id="shape7163-22">
							<title>ellipse35-6</title>
							<ellipse cx="8.33754" cy="127.176" rx="8.33754" ry="8.09303" class="st6"/>
						</g>
					</g>
					<g id="group7164-24" transform="translate(1.728,-1.59327)">
						<title>path19531-0</title>
						<g id="shape7165-25">
							<title>ellipse40-7</title>
							<ellipse cx="6.59773" cy="128.8" rx="6.59773" ry="6.46939" class="st7"/>
						</g>
					</g>
					<g id="group7166-29" transform="translate(4.27905,-4.24125)">
						<title>path17198-8-5</title>
						<g id="shape7167-30">
							<title>path45-9</title>
							<path d="M2.07 127.8 L6.01 127.8 L8.13 131.51 L5.99 135.27 L2.12 135.27 L0 131.54 L2.07 127.8 Z"
									class="st8"/>
						</g>
					</g>
				</g>
				<g id="group7168-32" transform="translate(46.3673,-21.8481) rotate(17.6)">
					<title>path26623-1</title>
					<g id="shape7169-33">
						<title>path56-3</title>
						<path d="M8.96 135.27 L12.74 120.83 L16.88 119.73 L19.03 117.38 L19.03 116.13 L18.41 115.68 L15.8 118.42
									 L13.27 119.19 L11.55 117.79 L12 114.95 L14.52 112.19 L13.93 111.62 L12.95 111.67 L10.53 114.23
									 L9.94 118.22 L0 131.06 L8.96 135.27 Z" class="st9"/>
					</g>
				</g>
				<g id="group7170-35" transform="translate(49.3069,-23.145) rotate(17.6)">
					<title>path27387</title>
					<g id="shape7171-36">
						<title>path61-5</title>
						<path d="M0 132.71 L8.31 121.6 L9.26 122.41 L5.36 135.27 L0 132.71 Z" class="st10"/>
					</g>
				</g>
				<g id="group7172-40" transform="translate(4.73049,-23.271)">
					<title>path19531-6</title>
					<g id="shape7173-41">
						<title>ellipse66-8</title>
						<ellipse cx="5.13889" cy="130.281" rx="5.13889" ry="4.98819" class="st11"/>
					</g>
				</g>
				<g id="group7174-43" transform="translate(5.79552,-24.2529)">
					<title>path19531-0-6</title>
					<g id="shape7175-44">
						<title>ellipse71-8</title>
						<ellipse cx="4.06655" cy="131.282" rx="4.06655" ry="3.98745" class="st12"/>
					</g>
				</g>
				<g id="group7176-48" transform="translate(7.36791,-25.8852)">
					<title>path17198-8-5-0</title>
					<g id="shape7177-49">
						<title>path76-8</title>
						<path d="M1.27 130.66 L3.71 130.66 L5.01 132.95 L3.69 135.27 L1.31 135.27 L0 132.97 L1.27 130.66 Z"
								class="st13"/>
					</g>
				</g>
			</g>
		</g>
	</g>
</svg>
